X:1
T:Sonata
T:Sonata
T:Antonio José (1902 - 1936)
T:para guitarra
C:Antonio José
%%score ( 1 2 3 4 )
L:1/8
Q:1/4=90
M:2/4
K:C
V:1 treble-8 nm="Classical Guitar" snm="Guit."
V:2 treble-8 
V:3 treble-8 
V:4 treble-8 
V:1
"^I. Allegro moderato"!<(! E/^F/G/A/ ^A/B/e/g/!<)! |!f! ^fe/d/ ed/c/ | dc/B/ cB/A/ | BE Ee | %4
 cB/G/ Ae | B/A/A/^F/ Ge |!p!"^II"x/!<(!C/E/G,/x/C/E/B,/ |x/c/e/G/!<)!!>(!x/c/e/B/!>)! | %8
!<(!"^II"x/^F/A/C/x/F/A/E/ |x/^f/a/c/!<)!!>(!x/f/a/e/!>)! |!p! b>c' d'"^VII"e' | %11
 a/b/a/b/"^VII" c'>d' | g>a"^V" bc' | ^f/g/f/g/ a>b | e2- e/^d/e/^f/ | %15
"_cresc." g/^f/g/a/ ^a/b/g/f/ | e/^d/e/^f/ ^g/^^f/g/^a/ | ^c'/^a/b/^b/ ^d'/c'/^^c'/d'/ | %18
!f! ^f'e'/=d'/ =b/=a/=g/e/ |!>(! d/B/A/G/ E/D/B,/A,/!>)! |!p!"^IV"x/!<(!D/^F/A,/x/D/F/B,/ | %21
x/D/^F/B,/!<)!!>(!x/G/B/E/!>)! |!p!!<(!x/A/^c/E/x/A/c/^F/ | %23
"^II"x/A/^c/^F/!<)!!>(!"^VII"x/d/^f/B/!>)! |!p!"_cresc."x/e/^g/B/x/e/g/^c/ |x/e/^g/B/x/e/g/^c/ | %26
x/e/^g/B/x/e/g/^B/ |x/e/^g/^^c/x/a/^c'/^f/ |!f!"^VII" =e[e^f]"^VIII" ^c'>b | ^g a3 | ^ab ^f'>e' | %31
 ^c' d'3 | ^c' d'3 | ^c'/d'/e'/d'/ d'/b/b/a/ |"_dim." a/g/g/e/ e/_e/e/d/ | ^c d3 | ^c d3 | %37
x/=B,/D/F/ ^G/c/e/d/ |x/B/d/f/ ^g/c'/e'/d'/ |[Q:1/4=60]!p! ([g_bd']"^III" [G_Bd]3) | %40
"^II" [EA^c]"^III"[G_Bd]- [GBd]/g/_b/d'/ | c'2 ^c'2 |"^VI" [Fd'] [_Bdf]3 | %43
[Q:1/4=90]!pp!(3x"_dejando vibrar"F_B (3dfd' |(3xF_B (3dfd' |!<(!(3xF_B (3dfd'!<)! | %46
[Q:1/4=60]!mf! [^Fd'] [_Bd^f]3 | [Gd'] [_Bdg]3 | [^Fd'] [_Bd^f]3 |[Q:1/4=90]!pp!(3x=F_B (3dfd' | %50
(3xF_B (3dfd' |!<(!(3xF_B (3dfd'!<)! |[Q:1/4=60]!mf! [^Fd'] [_Bd^f]3 | %53
!pp!(3x"_rit. mucho"G_B (3dgd' | (e' f3) | %55
[Q:1/4=90]"_a tempo (un poquito menos movido)"(3x^FA"^VII" (3d^fd' |(3x^FA (3d^fd' | %57
(3x^FA (3d^fd' |(3x^FA (3d^fd' | (3:2:2z !>!e'2 x2 | (3^G,^FB"^VII" (3d^f!>!d' | %61
 (3:2:2z !>!e'2 x2 | (3^G,^FB (3d^f!>!d' | z2 [Be]2- | [Be]2!-(!{/[_B_e]} !-)![Ad]2 | %65
 ^c2"^IV" ^g2- | g2 ^f2 |!<(! (3e^ce (3^f^ga | ^c'>b!<)! e'2- | [be']2!-(!{/[_b_e']} !-)![ad']2 | %70
"^IX" ^c'2 ^g'2- | g'2 ^f'2 | (3e'^c'e' c'/=c'/b | z2!p! g2 | (3e^ce"^IV" c/=c/B | z4 | %76
[Q:1/4=60] [_E_G_B] [EGB]3 | [CFA][_E_G_B]- [EGB]/_e/_g/_b/ | _a2 =a2 |"^VII" [_D_b] [_G_B_d]3 | %80
[Q:1/4=90](3x_D_G (3_B_d_b |[Q:1/4=60] [_G_b] [G_B_e]3 |[Q:1/4=90](3x_D_G (3_B_d_b | _b _d3 | %84
 _b _d3 | _b _d3 | _b _d3 |"_cresc." (3F,=DF"^III" (3_B=d_b | (3_bd_B (3FDF, | %89
 (3E,DG"^III" (3_Bd_b | (3_bd_B (3GDF, |[Q:1/4=90]!f! z2 [_be'g']2- | [be'g']2 [ad'f']2 | %93
 [gc'e']2 [eac']2 | [ad'f']2 [gc'e']2 | [f_bd'][eac'] [dgb]2- | [dgb]2 [cfa]2 | %97
"^III" [_Beg]2 [Gce]2 | [cfa]2 [_Beg]2 | [Adf][Gce] [F_Bd]2- | [FBd]2 [Gce]2 | [_Beg]4 | [Adf]4 | %103
 !arpeggio!!>![D^GBe]4- | [DGBe]4 |!>(! z4 | z4!>)! |!p! !>![F_Bd]4- | [FBd]4 | z4 | z4 | %111
 A,/B,/C/D/!<(! ^D/E/A/c/ | BA/G/ AB/c/!<)! | gf/e/ d^d/e/ | ba/g/ a!mf!a' | f'e'/c'/ d'a' | %116
"^VII" e'd'/b/ c'a |"^III" fe/c/ da | ed/B/ cA | G/A/B/c/ d/^d/e/=d'/ |"^IV" c' b3 | %121
 d/e/^f/g/ a/^a/b/=a'/ | g' ^f'3 |"_cresc."x/a/^c'/^f/x/=c'/^f'/^d/ |"^VII"x/d/^f/B/x/=f/b/^G/ | %125
x/G/B/E/x/^A/e/^C/ |x/C/E/A,/x/^D/A/^F,/ |!f! E/^F/G/A/ ^A/B/e/g/ | ^fe/d/ ed/c/ | dc/B/ cB/A/ | %130
 BE Ee | cB/G/ Ae | B/A/A/^F/ Ge |"_apasionadamente"x/C/E/G,/x/C/E/B,/ |x/_E/G/C/x/E/G/A,/ | %135
!<(!"^IV"x/D/^F/A,/x/D/F/B,/ |x/D/^F/B,/!<)!!>(!x/G/B/E/!>)! |!<(!"^VI"x/A/^c/E/x/A/c/^G/ | %138
x/=c/e/A/!<)!!>(!x/c/e/^F/!>)! |!<(!x/B/^d/^F/"^IV"x/B/d/^G/ |x/B/^d/^G/!<)!!>(!x/e/^g/^c/!>)! | %141
!<(!x/^f/^a/_d/!<)!!>(!x/g/b/_e/!>)! |!<(!x/_a/c'/_e/!<)!!>(!x/=a/^c'/f/!>)! | %143
!<(!x/_b/d'/f/!<)!!>(!x/=b/^d'/g/!>)! |x/c'/e'/g/ g/^g/b/a/ |[Q:1/4=60]!f! ([f_ac']"^I" [F_Ac]3) | %146
 [DGB]"^I"[F_Ac]- [FAc]/f/_a/c'/ | _b2 =b2 |"^IV" !>![_Ec'] [_Ac_e]3 | %149
[Q:1/4=90]!p!(3x_E_A (3c_ec' |(3x_E_A (3c_ec' |!<(!(3x_E_A (3c_ec'!<)! | %152
[Q:1/4=60]!f! [Ec'] [_Ace]3 | [Fc'] [_Acf]3 | [Ec'] [_Ace]3 |[Q:1/4=90]!p!(3x_E_A (3c_ec' | %156
(3x_E_A (3c_ec' |!<(!(3x_E_A (3c_ec'!<)! |[Q:1/4=60]!f! [Ec'] [_Ac=e]3 |!p!(3xF_A (3cfc' | %160
 d'"^VIII" _e3 |[Q:1/4=90]"_dim."(3x=EG (3c=ec' |(3xEG (3cec' |(3xEG (3cec' |(3xEG (3cec' | %165
 (3:2:2z"^VII" d'2 x2 |"^II" (3^F,EA (3cec' | (3:2:2z d'2 x2 | (3^F,EA (3cec' | z2 D2- | %170
"_rit. expres." D2{/!fermata!^F} !fermata!E2 |!p!"_a tempo" b>c' d'e' | a/b/a/b/ c'>d' | g>a bc' || %174
[M:3/4] ^f/g/f/g/ ab z2 |[M:2/4] e2- e/^d/e/^f/ | g/^f/g/a/ ^a/b/g/f/ | %177
"^cresc." e/^d/e/^f/ ^g/^^f/g/^a/ | ^c'/^a/b/^b/ ^d'/c'/^^c'/d'/ |!f! ^f'e'/=d'/ =b/=a/=g/e/ | %180
!>(! d/B/A/G/ E/D/B,/A,/!>)! |!p!x/D/^F/A,/x/D/F/B,/ |x/D/^F/B,/x/G/B/E/ | %183
!<(! _e/=f/g/_a/ _b/=b/c'/_b'/!<)! | _a' !breath!g'3 |x/A/^c/E/x/A/c/^F/ |x/A/^c/^F/x/d/^f/B/ | %187
!<(! _B/=c/=d/_e/ f/^f/g/=f'/!<)! | _e' !breath!d'3 |"_cresc."x/e/^g/B/x/"^X"e/g/^c/ | %190
x/e/^g/B/x/e/g/^c/ |x/e/^g/B/x/e/g/^B/ |x/e/^g/^^c/x/a/^c'/^f/ |"^a tempo"!f! =e[e^f] ^c'>b | %194
 ^g a3 | ^ab =f'2- | f'2 e'2 | !>![^f^f'] [dfb]3 | !>![^f^f'] [df^a]3 | !>![^f^f'] [df=a]3 | %200
 !>![^f^f'] [df^g]3 |(3x^A^c (3^f^a^f' | (3^f'^a^f (3^c^A^C |(3x^A^c (3^f^a^f' | %204
 (3^f'^a^f (3^c^A^C |(3x^Ae (3gd'g' | (3g'd'g (3e^AC |(3x^Ae (3gd'g' | (3g'd'g (3e^AC | %209
"^II" B,B,B,B, | E/^F/G/A/ ^A/B/e/g/ | ^f e3 |"^V" E/^F/G/A/ ^A/B/d/^c/ | %213
"^rit. hasta fin" E/^F/G/A/ ^A/B/d/^c/ | E/^F/G/A/ ^A/B/e/^f/ |"^V" !arpeggio!!>![^ceb]4- | %216
 [ceb]4 | E^FGA | ^ABb=a |"^II" [^Ae^f]4- | [Aef]4 |"^despacio" ^F,G,^G,A, | ^A,B,D^C- | C2 =C2- | %224
 C4 |!f!"^II" !>![^FAe]4 | !>![^FAd]4 | !arpeggio!!>![^GBe]4- | [GBe]4 |]: %229
[M:3/4]S[Q:1/4=130]"^II. Minuetto"!p! .[_EG]2 !tenuto![EG]4 | .[_Bc]2 !tenuto![Bc]4 | [Ad]2 dc=Bc | %232
 d6 | .[_EG]2 !tenuto![EG]4 | .[Gd=e]2 !tenuto![G^ce]4 | [F=cf]2 fede | f6 | %237
 .[=EG]2 !tenuto![EG]4 | .[eg]2 !tenuto![eg]4 | _g2"^IV" gf_ef | _g6 |"^III" z =g dcGE | z2 z4 | %243
 z2!>(! [^FAd]2"^VI" [_A_df]2 |"^VIII" [_c_e_a]2 [=e=gc']2!>)! z2 :| %245
!mf! [_e_g_b][egb] ([dfa][egb]) ([dfa][egb]) |"^IV" _e2 e2"^VI" _b2 |"^VII" a2 a^g^fg | a2 z4 | %249
 [Be^g][Beg] ([^A^d^^f][Beg]) ([Adf][Beg]) | B2 B2 ^g2 |"^II" g2 g^fef | g2 z4 | %253
"^IV" z!p! [^f^g]^e^d^cA | [=c=d]B .[Ad].[Bd] [cd]2 | z B^A^F^G^c | B2 ^A^F ^G2 | %257
!mf! [_e_g_b][egb] ([dfa][egb]) ([dfa][egb]) | _e2 e2 _b2 | a2 ^c^fcB | %260
"_poco rit." AE B=D"^I" =c=C |"^a tempo" z ^FEA [^ce]2 | z ^FEA [^ce]2 | z ^FEA [Bde]2 | %264
 z ^FEA [Bde]2 |"_marcando bien el canto" z ^FEA [^ce]2 |"^II" z ^FEA [^ce]2 | z ^F"^II"EA [Bde]2 | %268
"^II" z ^FEA [Bde]2 |!<(! [A^ce][Ace] [E_Bd][Gce]"^III" [ABd][Gce]!<)! | %270
!f! [a^c'e']2 [ac'e']2 [ac'e']2 |"^VIII" _e'2 e'd'=c'd' | _e'6 | z2 [A=e]2 [Ae]2 | %274
 [Ae]2 [^Fe]2 [^Ge]2 |!>(! z E ^FA^ce!>)! |!>(! ^fa^c'e'!p! a'2!>)! |!f! ^g'2 g'!>(!^f'e'^c' | %278
 b^g^fe^cB!>)! |!p!"^III" _B4"^rall." =cd | e2 ^f2 b2 |"^despacio" z4 [GB^f]2- | [GBf]2 [GBe]4 | %283
"^a tempo""^IV" z2 [_Ec_e][Ff][_G_g][_A_a] | [_B_b]2 [_d_d']2 [ff']2 | =e'6 |"^VII" =c'6 | %287
!ff! ^g'2 g'!>(!^f'e'^c' | b^g^fe^cB!>)! |!p! _B4 =cd | e2 ^f2 b2 |!f! z2 ^g'^f'e'^c' | %292
"^poco accel." b^g^fe^cB | z2 ^g'^f'e'^c' | b^g^fe^cB | z2 ^g'^f'e'^c' | z2 ^g'^f'e'^c' | %297
 z2 ^g!>(!^fe^c | B^G^FE^CB,!>)! |"^tiempo normal"!p! z B^A^F^G^c | B2 ^A^F ^G2 | z B^A^F^G^c | %302
 B2 ^A^F ^G2 |"_rall. mucho" z B^A^F^G^c | B2 ^A^F ^G2 | z B^A^F^G^c | B2 ^A^F ^G2!D.S.!!dacoda! || %307
O!p! .[_EG]2 !tenuto![EG]4 | .[_Bc]2 !tenuto![Bc]4 | [Ad]2 dc=Bc | d6 | .[_EG]2 !tenuto![EG]4 | %312
 .[Gd=e]2 !tenuto![G^ce]4 | [F=cf]2 fede | f6 | .[=EG]2 !tenuto![EG]4 | .[eg]2 !tenuto![eg]4 | %317
 _g2 gf_ef |"_rit. mucho" _g6 | z =g dcGE | z2 z4 | z2 [^FAd]2 [_A_df]2 | %322
 [_c_e_a]2 [=e=gc']2 !fermata!z2 |] %323
[M:3/2][Q:1/4=60]!p!"^III. Pavana Triste" [EGB]4 [FAd]4 [_Acf]4 |!mp! b2- b>a b2-"^V" b>d' a>bg>a | %325
 =e2- e>d e2- e>^f d>ec>d | B2- B>A B2- B>=d"^II" A>BG>A | E2- E>D E4 z4 | %328
"_expresivo" z2 [G_eg]2 z2 [Geg]2 [eg]2 [eg]2 |"^un poco más movido"x_c_e_Axcef _B"^VI"fe_d | %330
x_c_e_Axcef ef_ge |!<(!"^VII"xd^fBxdf^G ^^FGA^c!<)! |!f! e4 d4 ^fedB | B4 d4!>(! Bdgb!>)! | %334
 d'2- d'>c' d'2 Pc'_b c'2"^V" ba |"^III" d2 [_Ba]2 [cg]2"^V" [Af][Ge] [Af][Ge][Bd][Gc] | %336
"_rall." [Ad]2 fg"^I" a2 a2 a2"^XII" e'b |!>(! [A,E^ca]8 z4!>)! |!mf! _d_e [df]2- [df]4 e4 | %339
 _d_e [df]2- [df]4 d4 | _d_e [df]2- [df]4 e4 | _d_e [df]2- [df]4 d4 | %342
"^III" fg [f_a]2- [fa]4 [_eg]4 |"^IV" fg [f_a]2- [fa]4 f4 | fg [f_a]2- [fa]4 [_eg]4 | %345
 fg [f_a]2- [fa]4 f4 |!f! G,/D/B/f/^c'/b/_b/a/ _B,2 !>!e'2 d'3 c' | !>!d'4 !>!d'4 !>!d'4 | %348
xG_egxGeg z4 |"^VII"!>!x^d^fb!>!xdfb!>!xdfc' | bgea bged'"^V" abga | bgea bged' abga | %352
 ecAd ecAg decd | z2 G2 D2 E2 C2 D2 | z2 z [Gg]!<(! [Dd][Ee][Cc][Dd] [Ee][^F^f][Gg][Aa]!<)! | %355
!ff! b2- b>a b2- b>d' a>bg>a | e2- e>d e2- e>^f d>ec>d | B2- B>A B2- B>d A>BG>A | %358
 E2- E>D !breath!E8 |[Q:1/4=60]"^Tempo I"!p! b2- b>a b2- b>d' a>bg>a | =e2- e>d e2- e>^f d>ec>d | %361
 B2- B>A B2- B>=d A>BG>A | E2- E>D E4 z4 |xG_egxGe!<(!g z4!<)! | %364
"^expresivo"!f! b2- b>a b2- b>d' a>b=g>a | b2- b>a b2- b>d'"^VIII" a>bg>a | e2- e>d e2 ^f2 decd | %367
 B2- B>A B2 d2 Bdgb | d'2 d'>c' d'4 c'2 _ba | d2 [_Ba]2 [cg]2 [Af][Ge] [Af][Ge][Bd][Gc] | %370
 [Ad]2 fg"^rall." a2 a2 a2"^XII" e'b |!>(! [E^ca]4 z8 | z4!>)!!p! a8 |] %373
[M:2/4][Q:1/4=120]"^Allegro con brio"!f!"^IV. Final" !>![G,E_Bd]/"_rasgueado"!>![G,EBd]/!>![G,EBd]/!>![G,EBd-]/ d/e/A/c/ | %374
 _B/D/^C/F/ E/A,/=C/=B,/ | E/D/G/F/ c/_B/e/d/ | c/_B/A/G/ F/E/D/C/ | %377
"_siempre""^V" !>![Gdea]/!>![Gdea]/!>![Gdea]/!>![Gdea-]/ a/_b/d/f/ | e/A/^G/c/ =B/D/F/E/ | %379
 A/^G/c/B/ e/d/=g/f/ | e/d/c/B/ A/G/F/E/ | %381
"_simile" !>![G,E_Bd]/!>![G,EBd]/!>![G,EBd]/!>![G,EBd-]/ d/e/A/c/ | %382
"^III" _B/d/^c/f/"^V" e/a/g/_b/ | !>![Gdea]/!>![Gdea]/!>![Gdea]/!>![Gdea-]/ a/_b/d/f/ | %384
 e/A/^G/c/ =B/D/F/E/ | !>![G,E_Bd]/!>![G,EBd]/!>![G,EBd]/!>![G,EBd-]/ d/e/"^V"g/f/ | %386
 !>![Gdea]/!>![Gdea]/!>![Gdea]/!>![Gdea-]/ a/_b/d/f/ | %387
 !>![G,E_Bd]/!>![G,EBd]/!>![G,EBd]/!>![G,EBd-]/ d/e/A/c/ | _B/D/^C/F/ E/A,/=C/=B,/ | %389
 E/D/G/F/ c/_B/e/d/ | c/_B/A/G/ F/E/D/C/ | _B,/A,/G,/F,/ E,/F,/E,/F,/ | %392
!>(! E,/F,/E,/F,/ E,/F,/G,/A,/!>)! |!p! _B,/"_y agitado"_d/F/A/ c/_B/f/_g/ | %394
 _g/f/_f/_d/ _B/_G/_D/_G,/ |!<(! _B,/_d/F/A/ c/_B/f/_g/!<)! |!>(! _g/f/e/^c/ _B/G/E/A,/!>)! | %397
 F,/A,/E/D/ ^G/A/^c/d/ |"_cresc." A,/D/G/F/ ^c/d/e/f/ | D/F/_B/A/ e/f/^g/a/ | %400
 F/A/e/d/ ^g/a/^c'/d'/ |!pp! d'2 g2 |"^VII" c'2 e2 | b2 e2 | a2 z2 | %405
!f! F,[^GB]/[GB]/ [_e=g]/[eg]/[Ac]/[Ac]/ | [^B^d]/[Bd]/[^ce]/[ce]/ [^g=b]/[gb]/[^fa]/[fa]/ | %407
 [^fa]/[fa]/[^A^c]/[Ac]/ [e^g]/[eg]/[Bd]/[Bd]/ | [d^f]/[df]/[^^F^A]/[FA]/ [^ce]/[ce]/[^GB]/[GB]/ | %409
"_dim. y poco rit." [Bd]/[Bd]/[^C^E]/[CE]/ [A^c]/[Ac]/[D^F]/[DF]/ | %410
 [^GB]/[GB]/[d^f]/[df]/ [^ce]/[ce]/[Q:1/4=115][^^F^A]/[FA]/ | %411
[Q:1/4=110] [^ce]/[ce]/[Q:1/4=105][ce]/[ce]/[Q:1/4=100] [^GB]/[GB]/[GB]/[Q:1/4=95][GB]/ | %412
[Q:1/4=90]"^Menos movido""^(como el 1er movimiento)" A,/B,/C/D/ ^D/E/A/c/ | BA/G/ AB/c/ | %414
 gf/e/ d^d/e/ | ba/g/ aa' |!p! z2 [_be'g']2- | [be'g']2 [ad'f']2 | [gc'e']2 [eac']2 | %419
 [ad'f']2 [gc'e']2 | [f_bd'][eac'] [dgb]2- | [dgb]2 [cfa]2 | [_Beg]2 [Gce]2 | [cfa]2 [_Beg]2 | %424
 [Adf][Gce] [F_Bd]2- | [FBd]2 [Gce]2 | [_Beg]4 | [Adf]4 | !arpeggio![D^GBe]4- | [DGBe]4 | z4 | z4 | %432
 [F_Bd]4- | [FBd]4 | z4 | z4 | %436
[Q:1/4=120]"^Tempo I"!f! !>![G,E_Bd]/!>![G,EBd]/!>![G,EBd]/!>![G,EBd-]/ d/e/A/c/ | %437
 _B/D/^C/F/ E/A,/=C/=B,/ | E/D/G/F/ c/_B/e/d/ | c/_B/A/G/ F/E/D/C/ | %440
 !>![Gdea]/!>![Gdea]/!>![Gdea]/!>![Gdea-]/ a/_b/d/f/ | e/A/^G/c/ =B/D/F/E/ | A/^G/c/B/ e/d/=g/f/ | %443
 e/d/c/B/ A/G/F/E/ | !>![G,E_Bd]/!>![G,EBd]/!>![G,EBd]/!>![G,EBd-]/ d/e/A/c/ | %445
 _B/d/^c/f/ e/a/g/_b/ | !>![Gdea]/!>![Gdea]/!>![Gdea]/!>![Gdea-]/ a/_b/d/f/ | e/A/^G/c/ =B/D/F/E/ | %448
 !>![G,E_Bd]/!>![G,EBd]/!>![G,EBd]/!>![G,EBd-]/ d/e/A/c/ | %449
 !>![Gdea]/!>![Gdea]/!>![Gdea]/!>![Gdea-]/ a/_b/d/f/ | %450
 !>![G,E_Bd]/!>![G,EBd]/!>![G,EBd]/!>![G,EBd-]/ d/e/A/c/ | _B/D/^C/F/ E/A,/=C/=B,/ | %452
 E/D/G/F/ c/_B/e/d/ | c/_B/A/G/ F/E/D/C/ |"_dim. et rall." _B,/A,/G,/F,/ E,/F,/[Q:1/4=115]E,/F,/ | %455
[Q:1/4=110] E,/F,/[Q:1/4=105]E,/F,/[Q:1/4=100] E,/F,/[Q:1/4=95]G,/A,/ | %456
[Q:1/4=90]"^Menos movido""_apasionadamente"x/C/E/G,/x/C/E/B,/ |x/_E/G/C/x/E/G/A,/ | %458
"^IV"!<(!x/D/^F/A,/x/D/F/B,/ |x/D/^F/B,/!<)!!>(!x/G/B/E/!>)! |"^VI"!<(!x/A/^c/E/x/A/c/^G/ | %461
x/=c/e/A/!<)!!>(!x/c/e/^F/!>)! |!<(!x/B/^d/^F/"^IV"x/B/d/^G/ |x/B/^d/^G/!<)!!>(!x/e/^g/^c/!>)! | %464
!<(!x/^f/^a/_d/!<)!!>(!x/g/b/_e/!>)! |!<(!x/_a/c'/_e/!<)!!>(!x/=a/^c'/f/!>)! | %466
!<(!x/_b/d'/f/!<)!!>(!x/=b/^d'/g/!>)! |x/c'/e'/g/ g/^g/b/a/ |[Q:1/4=60]!f! ([f_ac']"^I" [F_Ac]3) | %469
 [DGB]"^I"[F_Ac]- [FAc]/f/_a/c'/ | _b2 =b2 |"^IV" !>![_Ec'] [_Ac_e]3 | %472
[Q:1/4=90]!p!(3x_E_A (3c_ec' |(3x_E_A (3c_ec' |!<(!(3x_E_A (3c_ec'!<)! | %475
[Q:1/4=60]!f! [Ec'] [_Ace]3 | [Fc'] [_Acf]3 | [Ec'] [_Ace]3 |[Q:1/4=90]!p!(3x_E_A (3c_ec' | %479
(3x_E_A (3c_ec' |!<(!(3x_E_A (3c_ec'!<)! |[Q:1/4=60]!f! [Ec'] [_Ac=e]3 |!p!(3xF_A (3cfc' | %483
 d'"^VIII" _e3 |[Q:1/4=90]"_dim."(3x=EG (3c=ec' |(3xEG (3cec' |(3xEG (3cec' |(3xEG (3cec' | %488
 (3:2:2z"^VII" d'2 x2 |"^II" (3^F,EA (3cec' | (3:2:2z d'2 x2 | (3^F,EA (3cec' | %492
 z2"_vibrando con expresión" D2- | D2{/^F} E2- | E4 |!-(!{/C} !-)!E4- | !breath!E4 | %497
[Q:1/4=120]"^Tempo I"!f! !>![G,E_Bd]/!>![G,EBd]/!>![G,EBd]/!>![G,EBd-]/ d/e/A/c/ | %498
 _B/D/^C/F/ E/A,/=C/=B,/ | E/D/G/F/ c/_B/e/d/ | c/_B/A/G/ F/E/D/C/ | %501
 !>![Gdea]/!>![Gdea]/!>![Gdea]/!>![Gdea-]/ a/_b/d/f/ | e/A/^G/c/ =B/D/F/E/ | A/^G/c/B/ e/d/=g/f/ | %504
 e/d/c/B/ A/G/F/E/ | !>![G,E_Bd]/!>![G,EBd]/!>![G,EBd]/!>![G,EBd-]/ d/e/A/c/ | %506
 _B/d/^c/f/ e/a/g/_b/ | !>![Gdea]/!>![Gdea]/!>![Gdea]/!>![Gdea-]/ a/_b/d/f/ | e/A/^G/c/ =B/D/F/E/ | %509
 !>![G,E_Bd]/!>![G,EBd]/!>![G,EBd]/!>![G,EBd-]/ d/e/A/c/ | %510
 !>![Gdea]/!>![Gdea]/!>![Gdea]/!>![Gdea-]/ a/_b/d/f/ | %511
 !>![G,E_Bd]/!>![G,EBd]/!>![G,EBd]/!>![G,EBd-]/ d/e/A/c/ | d/e/c/e/ d/e/c/e/ | %513
 d/e/A/c/ _B/D/^C/F/ | E/D/=C/=B,/ E/D/C/B,/ | A,/E/D/E/ F/c/B/f/ | e/d/c/B/ e/d/c/B/ | %517
 e/d/c/B/ A/G/[Q:1/4=115]^F/G/ | %518
[Q:1/4=110]!>(! A/B/[Q:1/4=105]c/d/[Q:1/4=100] e/^f/[Q:1/4=95]g/a/!>)! | %519
[Q:1/4=90]"^Menos movido"!p! b>c' d'>e' | a/b/a/b/ c'>d' | g>a b>c' | ^f/g/f/g/ a>b | %523
 e2- e/^d/e/^f/ |"_cresc." g/^f/g/a/ ^a/b/g/f/ | e/^d/e/^f/ ^g/^^f/g/^a/ | %526
 ^c'/^a/b/^b/ ^d'/c'/^^c'/d'/ |!f! ^f'e'/=d'/ =b/=a/=g/e/ |!>(! d/B/A/G/ E/D/B,/A,/!>)! | %529
!p!"^IV"x/!<(!D/^F/A,/x/D/F/B,/ |x/D/^F/B,/!<)!!>(!x/G/B/E/!>)! |!p!!<(!x/A/^c/E/x/A/c/^F/ | %532
"^II"x/A/^c/^F/!<)!!>(!"^VII"x/d/^f/B/!>)! |!p!"_cresc."x/e/^g/B/x/e/g/^c/ |x/e/^g/B/x/e/g/^c/ | %535
x/e/^g/B/x/e/g/^B/ |x/e/^g/^^c/x/a/^c'/^f/ |!f!"^VII" =e[e^f]"^VIII" ^c'>b | ^g a3 | ^ab ^f'>e' | %540
 ^c' d'3 | ^c' d'3 | ^c'/d'/e'/d'/ d'/b/b/a/ |"_dim." a/g/g/e/ e/_e/e/d/ | ^c d3 | ^c d3 | %546
x/=B,/D/F/ ^G/c/e/d/ |x/B/d/f/ ^g/c'/e'/d'/ | z4 | z4 | %550
[Q:1/4=120]"^Tempo I"!f! !>![G,E_Bd]/!>![G,EBd]/!>![G,EBd]/!>![G,EBd-]/ d/e/A/c/ | %551
 _B/D/^C/F/ E/A,/=C/=B,/ | E/D/G/F/ c/_B/e/d/ | c/_B/A/G/ F/E/D/C/ | %554
 !>![Gdea]/!>![Gdea]/!>![Gdea]/!>![Gdea-]/ a/_b/d/f/ | e/A/^G/c/ =B/D/F/E/ | A/^G/c/B/ e/d/=g/f/ | %557
 e/d/c/B/ A/G/F/E/ | !>![G,E_Bd]/!>![G,EBd]/!>![G,EBd]/!>![G,EBd-]/ d/e/A/c/ | %559
 _B/d/^c/f/ e/a/g/_b/ | !>![Gdea]/!>![Gdea]/!>![Gdea]/!>![Gdea-]/ a/_b/d/f/ | e/A/^G/c/ =B/D/F/E/ | %562
 !>![G,E_Bd]/!>![G,EBd]/!>![G,EBd]/!>![G,EBd-]/ d/e/A/c/ | %563
 !>![Gdea]/!>![Gdea]/!>![Gdea]/!>![Gdea-]/ a/_b/d/f/ | %564
 !>![G,E_Bd]/!>![G,EBd]/!>![G,EBd]/!>![G,EBd-]/ d/e/A/c/ | d/e/c/e/ d/e/c/e/ | %566
"^III" [G_Bd]/[GBd]/[GBd]"^I" [F_A_df]/[FAdf]/[FAdf] | %567
 [_E_B_eg]/[EBeg]/[EBeg]"^V" [=A^c=e=a]/[Acea]/[Acea] | %568
 !>![Gdg_b]/!>![Gdgb]/!>![Gdgb]/!>![Gd-gb]/ d/e/c/e/ | d/c/_B/A/ G/A/B/c/ | d/e/c/e/ d/c/_B/A/ | %571
 G/A/_B/c/ d/e/c/e/ | d/e/c/e/ d/e/c/e/ | d/e/c/d/ e/^f/^g/a/ | %574
 z2!ff! [E,B,E^GBe]/[E,B,EGBe]/[E,B,EG^ce]/[E,B,EGce]/ | %575
"_cresc." [E,B,E^GBe]/[E,B,EGBe]/[E,B,EG^ce]/[E,B,EGce]/ [E,B,EGBe]/[E,B,EGBe]/[E,B,EGce]/[E,B,EGce]/ | %576
 x4 | x4 | [E,B,E^GBe]2"^X" !tenuto![=c^fae']2 | !tenuto![_Bead']2 !tenuto![A_egc']2 | %580
!fff! [E,B,E^GBe]/[E,B,EGBe]/!fermata![E,B,EGBe] z2 |] %581
V:2
 E,3 !>![E,=A,DGB] | z [Ac] [GB][^FA] | [EG][D^F] [CE][B,D] | [G,C]3 E, | [D^F]3 E, | [B,D]3 E, | %6
 ^F,>G, A,>B, | ^F>G A>B | B,>C D>E | B>c d>e | z [^fa] [eg][df] | z [eg] [d^f]"^V"[ce] | %12
 z [d^f] [ce][Bd] | z [ce] [Bd][Ac] | z/ G,/D/G/ B/^d/e/^f/ | z4 | [^F,^G^c]2 z2 | z4 | %18
 [=A,=D=G=B]4 | x4 | ^G,>A, ^A,>B, | ^C>B, ^F>E | ^D>E F>^F | ^G>^F ^c>B | ^A>B d>^c | ^A>B d>^c | %26
 ^A>B d>^B | ^d>^^c ^g>^f | B,/^F/A/^c/ [=F_eg]2 | ^F,/A,/D/^F/ A/d/^f/a/ | [E,^Gd]2 [_B_a]2 | %31
x/G/B/d/ e/g/a/g/ |x/G/B/d/ e/g/a/g/ | z2 [GB]2 | z4 | ^c/F,/_B,/D/ F/_A/=c/_B/ | %36
 ^c/F,/_B,/D/ F/_A/=c/_B/ | E,4 | E,4 | x4 | x4 | [Aeg]2 [F_e_g]2 | _B,4 | _B,4 | _B,4 | _B,4 | %46
 _B,4 | _B,4 | _B,4 | _B,4 | _B,4 | _B,4 | _B,4 | _B,4 | [^G=Bd] [=Gd]3 | A,4 | A,4 | A,4 | A,4 | %59
 (3z e'^f (3eB^F | x4 | (3z e'^f (3eB^F | x4 | z2 [^G,^F]2- | [G,F]2 z2 | [^C^E^G]2 z2 | [D^F^B]4 | %67
 [A,E^G]4 | [D=G=f]2 z2 | [^G^f]2 z2 | [^c^e^g]2 z2 | [d^f=c']4 | [^A^g]2 [^G^f]2 | z2 [A,^c_e]2 | %74
 [^A,E^G]2 [^G,D^F]2 | x4 | x4 | x4 | [Fc_e]2 [_D_c__e]2 | _G,4 | _G,4 | _G,4 | _G,4 | _G z _D_G, | %84
 _G z _D_G, | _G z _D_G, | _G z _D_G, | x4 | x4 | x4 | x4 | A,A,A,A, | A,A,A,A, | A,A,A,A, | %94
 A,A,A,A, | A,A,A,A, | A,A,A,A, | A,A,A,A, | A,A,A,A, | A,A,A,A, | A,A,A,A, | A,A,A,A, | A,A,A,A, | %103
 A,A,A,A, | A,A,A,A, | A,A,A,A, | A,A,A,A, | A,A,A,A, | A,A,A,A, | A,A,A,A, | A,A,A,A, | x4 | x4 | %113
 x4 | x4 | [Df_b]4 | [A,d^f]4 | [DF_B]4 | [^F,DA]4 | z2 [G,CG]2 | c'/^F/B/^d/ A/B/c/^c/ | %121
 z2 [DGB]2 | g'/"^XI"^c/^f/^a/ e/^e/f/g/ | ^g>^f e>^d | ^c>B A>^G | ^F>E D>^C | B,>A, G,>^F, | %127
 E,3 [E,=A,DGB] | z [Ac] [GB][^FA] | [EG][D^F] [CE][B,D] | [G,C]3 E, | [D^F]3 E, | [B,D]3 E, | %133
 ^F,>G, A,>B, | D>C _B,>A, | ^G,>A, ^A,>B, | ^C>B, ^F>E | ^D>E ^F>^G | B>A G>^F | ^E>^F ^^F>^G | %140
 ^A>^G ^d>^c | c>_d _f>_e | d>_e _g>f | e>f _a>g | ^f>g z2 | x4 | x4 | [Gdf]2 [_E_d_f]2 | _A,4 | %149
 _A,4 | _A,4 | _A,4 | _A,4 | _A,4 | _A,4 | _A,4 | _A,4 | _A,4 | _A,4 | _A,4 | [A,c^f] [=F_c]3 | %161
 G,4 | G,4 | G,4 | G,4 | (3z d'e (3dAE | x4 | (3z d'e (3dAE | x4 | x4 | x4 | z [^fa] [eg][df] | %172
 z [eg] [d^f][ce] | z [d^f] [ce][Bd] ||[M:3/4] z [ce] [Bd][Ac] z2 |[M:2/4] z/ G,/D/G/ B/^d/e/^f/ | %176
 z4 | [^F,^G^c]2 z2 | z4 | [=A,=D=G=B]4 | x4 | ^G,>A, ^A,>B, | ^C>B, ^F>E | z4 | %184
 _a'/D/G/=B/"^XII" f/g/b/g'/ | ^D>E F>^F | ^G>^F ^c>B | z4 | _e'/A,/D/^F/"^VII" c/d/^f/d'/ | %189
 ^A>B d>^c | ^A>B d>^c | ^A>B d>^B | ^d>^^c ^g>^f | B,/^F/A/^c/ [=F_eg]2 | ^F,/A,/D/^F/ A/d/^f/a/ | %195
 [^Gd]2 [_ac']2- | [ac']4 | D4 | D4 | D4 | D4 | ^C2 x2 | x4 | ^C2 x2 | x4 | =C2 x2 | x4 | C2 x2 | %208
 x4 | x4 | B,B,B,B, | E,/^F,/G,/A,/ ^A,/B,/D/^C/ | =CB,E,B, | =CB,E,B, | =CB,E,B, | [A,EG]4- | %216
 [A,EG]4 | x4 | x4 | !arpeggio![^F,^CE]4- | [F,CE]4 | x4 | x4 | x4 | x4 | B,4 | B,4 | [E,B,E]4- | %228
 [E,B,E]4 |]:[M:3/4] D2 C4 | [A,=E]2 [G,E]4 | [F,C]2 z4 |x^G FB, E,2 | D2 C4 | A,2 A,4 | _A,2 z4 | %236
xB=AFDG, | D2 C"_cresc."DEG | d2 cdeg | z2 [_A,_Ec]4 |x=ec^FD=A, | G,2 G,4 | D2 B,C"^VII"DE | C6 | %244
 =C6 :| z6 | _A,_E_G_B_d=d | [B,^F^d]2 [B,Fd]4 | [B,^d]2 z4 | z6 | =G,D=F^GBc | [A,E^c]2 [A,Ec]4 | %252
 [A,^c]2 z4 | ^G,6 | [=G,=D]2 .G.G G2 | ^F,2 ^C2 =D2 | ^F,2 ^C2 =D2 | z6 | _A,_E_G_B_d=d | %259
 [=B,^F^d]2 z4 | A,2 =G,2 =F,2 | !>!E,2 !>!E,4 | !>!A,2 !>!A,4 | !>!B,2 !>!B,!>!A,!>!^G,!>!A, | %264
 !>!B,6 | !>!E,2 !>!E,4 | !>!^C2 !>!C4 | !>!D2 !>!D!>!^C!>!B,!>!C | !>!D6 | z6 | z6 | %271
 [F=ca]2 [Fca]4 | z2 [=Ba]3 [=B,A^c] | =E,2 E,4 | B,2 ^G,A,B,^C | A,6 | A,6 | %277
 !>![E,^g^c']2 !>![E,gc']4 | z6 | z =G,=CE z2 | [Dc]2 ^F2 B2 | z2 B,2 ^F2- | F2 E4 | !>!_A,4 z2 | %284
 z6 | =e2 [^fa][fa][fa][fa] | [e^f]2 [ef]2 [ef]2 | [E,^g^c']2 [E,gc']4 | z6 | z =G,=CE z2 | %290
 [Dc]2 ^F2 B2 | x2 [^g^c']4 | z6 | x2 [^g^c']4 | z6 | x2 [^g^c']4 | x2 [^g^c']4 | x2 [^G^c]4 | z6 | %299
 ^F,2 ^C2 D2 | ^F,2 ^C2 D2 | ^F,2 ^C2 D2 | ^F,2 ^C2 D2 | ^F,2 ^C2 D2 | ^F,2 ^C2 D2 | ^F,2 ^C2 D2 | %306
 ^F,2 ^C2 D2 || D2 C4 | [A,=E]2 [G,E]4 | [F,C]2 z4 |x^G FB, E,2 | D2 C4 | A,2 A,4 | _A,2 z4 | %314
xB=AFDG, | D2 CDEG | d2 cdeg | z2 [_A,_Ec]4 |x=ec^FD=A, | G,2 G,4 | D2 B,CDE | C6 | =C6 |] %323
[M:3/2] z12 | z2 C2 G2 c2 _e4 | z2 _B,2 C2 G2 A2 G2 | ^F2 E2 ^D2 ^C2 B,2 A,2 | %327
 G,2 ^F,2 E,2 F,2 G,2 B,2 | D2- D>C D2- D>"^III"C D>_EF>G | _B3 _A _G3 F _B,F_EA | %330
 _B3 _A _G3 F _EFGB | ^c3 =B =A3 ^G z4 | %332
 !arpeggio![E,B,EGB]2 !arpeggio![E,B,EGB]2 !arpeggio![E,B,EG]2 !arpeggio![E,B,EG]2 [EG]2 [EG]2 | %333
 [A,EG]2 [A,EG]2 [A,EG]2 [A,EG]2 [A,EG]2 z2 | z2 [A,c^f]2 [A,cf]2 [A,cf]2 [A,cf]2 [A,cf]2 | %335
 z2 [G,D]4 z6 | z2 [D_B]2 [F,Ec]4 [G,D=B]4 | z2 A2 A2 A2 A2 A2 | G2 G2 G2 G2 G2 G2 | %339
 A2 A2 A2 A2 A2 A2 | G2 G2 G2 G2 G2 G2 | A2 A2 A2 A2 A2 A2 | _B2 B2 B2 B2 B2 B2 | %343
 c2 c2 c2 c2 c2 c2 | _B2 B2 B2 B2 B2 B2 | c2 c2 c2 c2 c2 c2 | z4 z2 [D^fg]6 |xafBxafBxafB | %348
 D3 C D3 C D_EFG | A4 A4 B4 | c3 d c3 B c3 G | c3 d c3 B c3 G | F3 G F3 E F3 C | x12 | A,2 B,2 z8 | %355
 z2 !arpeggio!!>![E,GBe]2 z2 !arpeggio!!>![E,GBe]2 z2 !arpeggio!!>![A,ce]2 | %356
 z2 !arpeggio!!>![E,B,EGB]2 z2 !arpeggio!!>![E,B,EGB]2 z2 !arpeggio!!>![A,EA]2 | %357
 z2 !arpeggio!!>![E,B,EGe]2 z2 !arpeggio!!>![E,B,EGe]2 z2 !arpeggio!!>![A,Ece]2 | %358
 z2 !>![E,B,GBe]2 z2 !>![E,B,GBe]2 !arpeggio!!>![A,EA^ce]4 | z2 C2 G2 c2 _e4 | %360
 z2 _B,2 C2 G2 A2 G2 | ^F2 E2 ^D2 ^C2 B,2 A,2 | G,2 ^F,2 E,2 F,2 G,2 B,2 | D3 C D3 C D_EFG | %364
 !arpeggio![E,^Gd]4 z4 [Fc_e]2 [DBf]2 | [A,^cg]4 [DGf]4 [F=c_e]4 | !arpeggio![E,B,^Gd]4 z8 | %367
 [A,EG]4 [A,EG]4 z4 | z4 [A,c^f]4 z4 | z2 [G,D]4 z6 | z2 [D_B]2 [F,Ec]4 [G,D=B]4 | %371
 A,2 A,2 A,2 A,4 A,2- | A,4 !arpeggio![A,E^c]8 |][M:2/4] x4 | x4 | x4 | x4 | x4 | x4 | x4 | x4 | %381
 x4 | x4 | x4 | x4 | x4 | x4 | x4 | x4 | x4 | x4 | x4 | x4 | x4 | x4 | x4 | x4 | x4 | x4 | x4 | %400
 x4 | d'/"_sub."f/g/c/ g/_d/f/B/ | c'/^f/d/_B/ e/c/G/A,/ | b/d/e/A/ e/_B/d/^G/ | %404
 a/^d/B/G/ ^c/A/"^II"E/^F,/ | !>!=F,2 z2 | E,4 | E,4 | E,4 | E,4 | E,4 | E,4 | x4 | x4 | x4 | x4 | %416
 A,A,A,A, | A,A,A,A, | A,A,A,A, | A,A,A,A, | A,A,A,A, | A,A,A,A, | A,A,A,A, | A,A,A,A, | A,A,A,A, | %425
 A,A,A,A, | A,A,A,A, | A,A,A,A, | A,A,A,A, | A,A,A,A, | A,A,A,A, | A,A,A,A, | A,A,A,A, | A,A,A,A, | %434
 A,A,A,A, | A,A,A,A, | x4 | x4 | x4 | x4 | x4 | x4 | x4 | x4 | x4 | x4 | x4 | x4 | x4 | x4 | x4 | %451
 x4 | x4 | x4 | x4 | x4 | ^F,>G, A,>B, | D>C _B,>A, | ^G,>A, ^A,>B, | ^C>B, ^F>E | ^D>E ^F>^G | %461
 B>A G>^F | ^E>^F ^^F>^G | ^A>^G ^d>^c | c>_d _f>_e | d>_e _g>f | e>f _a>g | ^f>g z2 | x4 | x4 | %470
 [Gdf]2 [_E_d_f]2 | _A,4 | _A,4 | _A,4 | _A,4 | _A,4 | _A,4 | _A,4 | _A,4 | _A,4 | _A,4 | _A,4 | %482
 _A,4 | [A,c^f] [=F_c]3 | G,4 | G,4 | G,4 | G,4 | (3z d'e (3dAE | x4 | (3z d'e (3dAE | x4 | x4 | %493
 x4 | x4 | x4 | x4 | x4 | x4 | x4 | x4 | x4 | x4 | x4 | x4 | x4 | x4 | x4 | x4 | x4 | x4 | x4 | %512
 x4 | x4 | x4 | x4 | x4 | x4 | x4 |x/^f/a/c'/x/e/g/e'/ |z2x/d/^f/d'/ |x/c/e/a/x/B/d/c'/ | %522
z2x/A/c/b/ | z/ G,/D/G/ B/^d/e/^f/ | z4 | [^F,^G^c]2 z2 | z4 | [=A,=D=G=B]4 | x4 | ^G,>A, ^A,>B, | %530
 ^C>B, ^F>E | ^D>E F>^F | ^G>^F ^c>B | ^A>B d>^c | ^A>B d>^c | ^A>B d>^B | ^d>^^c ^g>^f | %537
 B,/^F/A/^c/ [=F_eg]2 | ^F,/A,/D/^F/ A/d/^f/a/ | [E,^Gd]2 [_B_a]2 |x/G/B/d/ e/g/a/g/ | %541
x/G/B/d/ e/g/a/g/ | z2 [GB]2 | z4 | ^c/F,/_B,/D/ F/_A/=c/_B/ | ^c/F,/_B,/D/ F/_A/=c/_B/ | E,4 | %547
 E,4 | x4 | x4 | x4 | x4 | x4 | x4 | x4 | x4 | x4 | x4 | x4 | x4 | x4 | x4 | x4 | x4 | x4 | x4 | %566
 x4 | x4 | x4 | x4 | x4 | x4 | x4 | x4 | x4 | x4 | x4 | x4 | x4 | x4 | x4 |] %581
V:3
 x4 | x4 | x4 | x4 | x4 | x4 | x4 | x4 | x4 | x4 | x4 | x4 | x4 | x4 | x4 | x4 | x4 | x4 | x4 | %19
 x4 | x4 | x4 | x4 | x4 | x4 | x4 | x4 | x4 | x4 | x4 | x4 | x4 | x4 | x4 | x4 | x4 | x4 | x4 | %38
 x4 | x4 | x4 | x4 | x4 | x4 | x4 | x4 | x4 | x4 | x4 | x4 | x4 | x4 | x4 | x4 | x4 | x4 | x4 | %57
 x4 | x4 | x4 | x4 | x4 | x4 | x4 | x4 | x4 | x4 | x4 | x4 | x4 | x4 | x4 | x4 | x4 | x4 | x4 | %76
 x4 | x4 | x4 | x4 | x4 | x4 | x4 | x4 | x4 | x4 | x4 | x4 | x4 | x4 | x4 | x4 | x4 | x4 | x4 | %95
 x4 | x4 | x4 | x4 | x4 | x4 | x4 | x4 | x4 | x4 | x4 | x4 | x4 | x4 | x4 | x4 | x4 | x4 | x4 | %114
 x4 | x4 | x4 | x4 | x4 | x4 | x4 | x4 | x4 | x4 | x4 | x4 | x4 | x4 | x4 | x4 | x4 | x4 | x4 | %133
 x4 | x4 | x4 | x4 | x4 | x4 | x4 | x4 | x4 | x4 | x4 | x4 | x4 | x4 | x4 | x4 | x4 | x4 | x4 | %152
 x4 | x4 | x4 | x4 | x4 | x4 | x4 | x4 | x4 | x4 | x4 | x4 | x4 | x4 | x4 | x4 | x4 | x4 | x4 | %171
 x4 | x4 | x4 ||[M:3/4] x6 |[M:2/4] x4 | x4 | x4 | x4 | x4 | x4 | x4 | x4 | x4 | x4 | x4 | x4 | %187
 x4 | x4 | x4 | x4 | x4 | x4 | x4 | x4 | E,2 D2- | D4 | x4 | x4 | x4 | x4 | x4 | x4 | x4 | x4 | %205
 x4 | x4 | x4 | x4 | x4 | x4 | x4 | x4 | x4 | x4 | x4 | x4 | x4 | x4 | x4 | x4 | x4 | x4 | x4 | %224
 x4 | x4 | x4 | x4 | x4 |]:[M:3/4] x6 | x6 | x6 | x6 | x6 | x6 | x6 | x6 | x6 | x6 | x6 | x6 | x6 | %242
 x6 | x6 | x6 :| x6 | x6 | x6 | x6 | x6 | x6 | x6 | x6 | x6 | x6 | x6 | x6 | x6 | x6 | x6 | x6 | %261
 x6 | x6 | x6 | x6 | x6 | x6 | x6 | x6 | x6 | x6 | x6 | x6 | x6 | x6 | x6 | x6 | x6 | x6 | x6 | %280
 x6 | x6 | x6 | x6 | x6 | x6 | x6 | x6 | x6 | x6 | x6 | x6 | x6 | x6 | x6 | x6 | x6 | x6 | x6 | %299
 x6 | x6 | x6 | x6 | x6 | x6 | x6 | x6 || x6 | x6 | x6 | x6 | x6 | x6 | x6 | x6 | x6 | x6 | x6 | %318
 x6 | x6 | x6 | x6 | x6 |][M:3/2] x12 | x12 | x12 | x12 | x12 | x12 | x12 | x12 | x12 | x12 | x12 | %334
 x12 | x12 | x12 | x12 | x8 C4 | x8 _B,4 | x8 C4 | x8 _B,4 | x12 | x8 _D4 | x12 | x8 _D4 | x12 | %347
 x12 | x12 | x12 | x12 | x12 | x12 | x12 | x12 | x12 | x12 | x12 | x12 | x12 | x12 | x12 | x12 | %363
 x12 | x12 | x12 | x12 | x12 | x12 | x12 | x12 | x12 | x12 |][M:2/4] x4 | x4 | x4 | x4 | x4 | x4 | %379
 x4 | x4 | x4 | x4 | x4 | x4 | x4 | x4 | x4 | x4 | x4 | x4 | x4 | x4 | x4 | x4 | x4 | x4 | x4 | %398
 x4 | x4 | x4 | x4 | x4 | x4 | x4 | x4 | x4 | x4 | x4 | x4 | x4 | x4 | x4 | x4 | x4 | x4 | x4 | %417
 x4 | x4 | x4 | x4 | x4 | x4 | x4 | x4 | x4 | x4 | x4 | x4 | x4 | x4 | x4 | x4 | x4 | x4 | x4 | %436
 x4 | x4 | x4 | x4 | x4 | x4 | x4 | x4 | x4 | x4 | x4 | x4 | x4 | x4 | x4 | x4 | x4 | x4 | x4 | %455
 x4 | x4 | x4 | x4 | x4 | x4 | x4 | x4 | x4 | x4 | x4 | x4 | x4 | x4 | x4 | x4 | x4 | x4 | x4 | %474
 x4 | x4 | x4 | x4 | x4 | x4 | x4 | x4 | x4 | x4 | x4 | x4 | x4 | x4 | x4 | x4 | x4 | x4 | x4 | %493
 x4 | x4 | x4 | x4 | x4 | x4 | x4 | x4 | x4 | x4 | x4 | x4 | x4 | x4 | x4 | x4 | x4 | x4 | x4 | %512
 x4 | x4 | x4 | x4 | x4 | x4 | x4 | x4 | x4 | x4 | x4 | x4 | x4 | x4 | x4 | x4 | x4 | x4 | x4 | %531
 x4 | x4 | x4 | x4 | x4 | x4 | x4 | x4 | x4 | x4 | x4 | x4 | x4 | x4 | x4 | x4 | x4 | x4 | x4 | %550
 x4 | x4 | x4 | x4 | x4 | x4 | x4 | x4 | x4 | x4 | x4 | x4 | x4 | x4 | x4 | x4 | x4 | x4 | x4 | %569
 x4 | x4 | x4 | x4 | x4 | x4 | x4 | x4 | x4 | x4 | x4 | x4 |] %581
V:4
 x4 | x4 | x4 | x4 | x4 | x4 | x4 | x4 | x4 | x4 | x4 | x4 | x4 | x4 | x4 | x4 | x4 | x4 | x4 | %19
 x4 | x4 | x4 | x4 | x4 | x4 | x4 | x4 | x4 | x4 | x4 | x4 | x4 | x4 | x4 | x4 | x4 | x4 | x4 | %38
 x4 | x4 | x4 | x4 | x4 | x4 | x4 | x4 | x4 | x4 | x4 | x4 | x4 | x4 | x4 | x4 | x4 | x4 | x4 | %57
 x4 | x4 | x4 | x4 | x4 | x4 | x4 | x4 | x4 | x4 | x4 | x4 | x4 | x4 | x4 | x4 | x4 | x4 | x4 | %76
 x4 | x4 | x4 | x4 | x4 | x4 | x4 | x4 | x4 | x4 | x4 | x4 | x4 | x4 | x4 | x4 | x4 | x4 | x4 | %95
 x4 | x4 | x4 | x4 | x4 | x4 | x4 | x4 | x4 | x4 | x4 | x4 | x4 | x4 | x4 | x4 | x4 | x4 | x4 | %114
 x4 | x4 | x4 | x4 | x4 | x4 | x4 | x4 | x4 | x4 | x4 | x4 | x4 | x4 | x4 | x4 | x4 | x4 | x4 | %133
 x4 | x4 | x4 | x4 | x4 | x4 | x4 | x4 | x4 | x4 | x4 | x4 | x4 | x4 | x4 | x4 | x4 | x4 | x4 | %152
 x4 | x4 | x4 | x4 | x4 | x4 | x4 | x4 | x4 | x4 | x4 | x4 | x4 | x4 | x4 | x4 | x4 | x4 | x4 | %171
 x4 | x4 | x4 ||[M:3/4] x6 |[M:2/4] x4 | x4 | x4 | x4 | x4 | x4 | x4 | x4 | x4 | x4 | x4 | x4 | %187
 x4 | x4 | x4 | x4 | x4 | x4 | x4 | x4 | x4 | x4 | x4 | x4 | x4 | x4 | x4 | x4 | x4 | x4 | x4 | %206
 x4 | x4 | x4 | x4 | x4 | x4 | x4 | x4 | x4 | x4 | x4 | x4 | x4 | x4 | x4 | x4 | x4 | x4 | x4 | %225
 x4 | x4 | x4 | x4 |]:[M:3/4] x6 | x6 | x6 | x6 | x6 | x6 | x6 | x6 | x6 | x6 | x6 | x6 | x6 | x6 | %243
 x6 | x6 :| x6 | x6 | x6 | ^F^GBA ^c2 | x6 | x6 | x6 | E^FGAB^c | x6 | x6 | x6 | x6 | x6 | x6 | %259
 x6 | x6 | x6 | x6 | x6 | x6 | x6 | x6 | x6 | x6 | x6 | x6 | x6 | x2 ^c'2 _e2 | x6 | x6 | x6 | x6 | %277
 x6 | x6 | x6 | A,6 | E,6- | E,6 | x6 | x6 | x6 | A6 | x6 | x6 | x6 | A,6 | !>!E,6 | x6 | !>!E,6 | %294
 x6 | !>!E,6 | !>!E,6 | !>!E,6 | x6 | x6 | x6 | x6 | x6 | x6 | x6 | x6 | x6 || x6 | x6 | x6 | x6 | %311
 x6 | x6 | x6 | x6 | x6 | x6 | x6 | x6 | x6 | x6 | x6 | x6 |][M:3/2] x12 | E,12 | E,12 | E,12 | %327
 x12 | x12 | x12 | x12 | x12 | x12 | x12 | x12 | x12 | x12 | x12 | F,12 | F,12 | F,12 | F,12 | %342
 _A,12 | _A,12 | _A,12 | _A,12 | x12 | x12 | x12 | x12 | x12 | x12 | x12 | x12 | x12 | x12 | x12 | %357
 x12 | x12 | E,12 | E,12 | E,12 | x12 | x12 | x12 | x12 | x12 | x12 | x12 | x12 | x12 | x12 | %372
 x4 x4 z4 |][M:2/4] x4 | x4 | x4 | x4 | x4 | x4 | x4 | x4 | x4 | x4 | x4 | x4 | x4 | x4 | x4 | x4 | %389
 x4 | x4 | x4 | x4 | x4 | x4 | x4 | x4 | x4 | x4 | x4 | x4 | x4 | x4 | x4 | x4 | x4 | x4 | x4 | %408
 x4 | x4 | x4 | x4 | x4 | x4 | x4 | x4 | x4 | x4 | x4 | x4 | x4 | x4 | x4 | x4 | x4 | x4 | x4 | %427
 x4 | x4 | x4 | x4 | x4 | x4 | x4 | x4 | x4 | x4 | x4 | x4 | x4 | x4 | x4 | x4 | x4 | x4 | x4 | %446
 x4 | x4 | x4 | x4 | x4 | x4 | x4 | x4 | x4 | x4 | x4 | x4 | x4 | x4 | x4 | x4 | x4 | x4 | x4 | %465
 x4 | x4 | x4 | x4 | x4 | x4 | x4 | x4 | x4 | x4 | x4 | x4 | x4 | x4 | x4 | x4 | x4 | x4 | x4 | %484
 x4 | x4 | x4 | x4 | x4 | x4 | x4 | x4 | x4 | x4 | x4 | x4 | x4 | x4 | x4 | x4 | x4 | x4 | x4 | %503
 x4 | x4 | x4 | x4 | x4 | x4 | x4 | x4 | x4 | x4 | x4 | x4 | x4 | x4 | x4 | x4 | x4 | x4 | x4 | %522
 x4 | x4 | x4 | x4 | x4 | x4 | x4 | x4 | x4 | x4 | x4 | x4 | x4 | x4 | x4 | x4 | x4 | x4 | x4 | %541
 x4 | x4 | x4 | x4 | x4 | x4 | x4 | x4 | x4 | x4 | x4 | x4 | x4 | x4 | x4 | x4 | x4 | x4 | x4 | %560
 x4 | x4 | x4 | x4 | x4 | x4 | x4 | x4 | x4 | x4 | x4 | x4 | x4 | x4 | x4 | x4 | x4 | x4 | x4 | %579
 x4 | x4 |] %581

